X: 20823
Q: "Slow with feeling."
M: C
L: 1/8
K: C
[|\
(3DEG G>A GA (c(3d/e/f/) | e2{e}d>c c3z |\
_B2 (B/d/c/B/) (A>G)Ac | (Ge){e}dc A>c{A}GE |\
_B2 (B/d/c/B/) {B}A>GA>c | (Ge){e}d>c c3z |]
egg>a (ag)fe | (ge){e}d>c (Ac){A}GE |\
egg>a agfe | (d/e/f/e/) {e}d>c c2 zd |\
e<gg>a (ag)fe | {g}fe{e}dc (A>c){A}GE |\
(3(DEG) G>A GA (c(3d/e/f/) | e2 {e}d>c c2 z2 |]


